X: 15949
T: Granny In The Wood, The
R: polka
M: 2/4
K: Gmajor
|:g2 f2|e/d/e/f/ ed|B/G/B/d/ e/g/d|B/G/B/4/c/4d/ ed|
gg ff|e/d/e/f/ ed|B/G/B/4c/4d/ ed|1 B/G/A/F/ G2:|2 B/G/A/F/ G||
|:A/4B/4c/|dG G/B/A/G/|FA A/B/4c/4d/|ed B/A/B/d/|eA A/B/c/4B/4A/|
dG G/B/A/G/|FA A/B/4c/4d/|ed B/d/d/B/|AG G2:|2 AG G2||

